X: 104
P: No. CIV.
M: C|
L: 1/8
K: G
V: 1
(6:4:6(z/G/A/B/c/d/) |\
efef efef | Te8- | Te8 | (3(fed) B4 (6:4:6(z/G/A/B/c/d/) | gaga gaga | g2g2 Tg4- |
(3(ABd) Ted d4 |[M:3/4] cz (c/B/).A (B/A/).G | (A/G/).E (G/E/).D (A/G/).E |\
(B/A/).G (B/A/).G (A/G/).E |[M:C] G3A (3(BAG) E2 | (3(DEG) TAG G2 |]
V: 2 clef=bass middle=d
z2 | E8 | EGBe gegb | e'bgb dBGE | z2b2 B2z2 | G8- | GBdg bgbd' |
bgc'b afbB | ed/c/ B/A/G/F/ E4 | g2g2 g2g2 |: g2g2 g2g2 | g2g2 g2g2 | G2G2 G2G2 | G2G2 G2G2 :|
z2A2 d2D2 |[M:3/4] z6 | z6 | z6 |[M:C] B2d2 g2A2 | B2d2 G2 |]

